X: 131
T: Hal Robinson's Rant
T: dance: Hal Robinson's Rant [Barbara Russell]
C: Anne Hooper \251 1999
Z: 2009 John Chambers <jc:trillian.mit.edu>
B: Celebrate Fifty Years of Dancing with the Boston Branch RSCDS (2000) p.13
M: C|
L: 1/8
P: ABABB
K: E
"A"[| ec |\
"E"Bege fege | "E"fege "A"fece | "E"Bede "F#m"cAFc | "B7"Beed "E"e2ec |
"E"Bege fege | "E"fege "A"fece | "E"Bede "F#m"cAFc | "B7"BAGF "E"E2  ||
"B"[| ef |\
"E"gbBb "A"agfe | "B7"dcBd fagf | "E"gbBb "A"cagf | "B7"edcB "E"e2ef |
"E"gbBb "A"caca | "E"Bgfe "B7"dcBA | "E"GBeB "F#m"cAFc | "B7"BAGF "E"E2 |]

%%sep 2 1 500
%%sep 1 1 500

